packages/blockchain-info-components/src/Images/img/card-error-icon.svg

<svg fill="none" height="80" viewBox="0 0 84 80" width="84" xmlns="http://www.w3.org/2000/svg"><path d="m60 20h-48c-3.33 0-5.97 2.67-5.97 6l-.03 36c0 3.33 2.67 6 6 6h48c3.33 0 6-2.67 6-6v-36c0-3.33-2.67-6-6-6zm0 42h-48v-18h48zm0-30h-48v-6h48z" fill="#0c6cf2"/><g fill="#fff"><ellipse cx="64" cy="20" rx="20" ry="20"/><ellipse cx="64" cy="20" rx="20" ry="20"/><ellipse cx="64" cy="20" rx="20" ry="20"/><ellipse cx="64" cy="20" rx="20" ry="20"/><path d="m61.3335 10.6667h5.33333v18.6667h-5.33333z"/></g><path d="m64 36c8.832 0 16-7.168 16-16s-7.168-16-16-16-16 7.168-16 16 7.168 16 16 16zm-1.6-24h3.2v9.6h-3.2zm0 12.8h3.2v3.2h-3.2z" fill="#cf1726"/></svg>

<svg width="84" height="80" viewBox="0 0 84 80" fill="none" xmlns="http://www.w3.org/2000/svg">
<path d="M60 20H12C8.67 20 6.03 22.67 6.03 26L6 62C6 65.33 8.67 68 12 68H60C63.33 68 66 65.33 66 62V26C66 22.67 63.33 20 60 20ZM60 62H12V44H60V62ZM60 32H12V26H60V32Z" fill="#0C6CF2"/>
<ellipse cx="64" cy="20" rx="20" ry="20" fill="white"/>
<ellipse cx="64" cy="20" rx="20" ry="20" fill="white"/>
<ellipse cx="64" cy="20" rx="20" ry="20" fill="white"/>
<ellipse cx="64" cy="20" rx="20" ry="20" fill="white"/>
<rect x="61.3335" y="10.6667" width="5.33333" height="18.6667" fill="white"/>
<path d="M64 36C72.832 36 80 28.832 80 20C80 11.168 72.832 4 64 4C55.168 4 48 11.168 48 20C48 28.832 55.168 36 64 36ZM62.4 12H65.6V21.6H62.4V12ZM62.4 24.8H65.6V28H62.4V24.8Z" fill="#CF1726"/>
</svg>
